images/3246229.svg

<?xml version="1.0" encoding="UTF-8"?>
<svg xmlns="http://www.w3.org/2000/svg" xmlns:xlink="http://www.w3.org/1999/xlink" width="300pt" height="300pt" viewBox="0 0 300 300" version="1.1">
<defs>
<g>
<symbol overflow="visible" id="glyph0-0">
<path style="stroke:none;" d="M 0.640625 2.296875 L 0.640625 -9.171875 L 7.140625 -9.171875 L 7.140625 2.296875 Z M 1.375 1.578125 L 6.421875 1.578125 L 6.421875 -8.4375 L 1.375 -8.4375 Z M 1.375 1.578125 "/>
</symbol>
<symbol overflow="visible" id="glyph0-1">
<path style="stroke:none;" d="M 5.125 -8.609375 C 4.1875 -8.609375 3.441406 -8.257812 2.890625 -7.5625 C 2.347656 -6.875 2.078125 -5.929688 2.078125 -4.734375 C 2.078125 -3.535156 2.347656 -2.585938 2.890625 -1.890625 C 3.441406 -1.203125 4.1875 -0.859375 5.125 -0.859375 C 6.050781 -0.859375 6.785156 -1.203125 7.328125 -1.890625 C 7.878906 -2.585938 8.15625 -3.535156 8.15625 -4.734375 C 8.15625 -5.929688 7.878906 -6.875 7.328125 -7.5625 C 6.785156 -8.257812 6.050781 -8.609375 5.125 -8.609375 Z M 5.125 -9.65625 C 6.445312 -9.65625 7.503906 -9.207031 8.296875 -8.3125 C 9.097656 -7.414062 9.5 -6.222656 9.5 -4.734375 C 9.5 -3.234375 9.097656 -2.035156 8.296875 -1.140625 C 7.503906 -0.253906 6.445312 0.1875 5.125 0.1875 C 3.789062 0.1875 2.722656 -0.253906 1.921875 -1.140625 C 1.128906 -2.035156 0.734375 -3.234375 0.734375 -4.734375 C 0.734375 -6.222656 1.128906 -7.414062 1.921875 -8.3125 C 2.722656 -9.207031 3.789062 -9.65625 5.125 -9.65625 Z M 5.125 -9.65625 "/>
</symbol>
<symbol overflow="visible" id="glyph0-2">
<path style="stroke:none;" d="M 1.28125 -9.484375 L 3 -9.484375 L 7.203125 -1.546875 L 7.203125 -9.484375 L 8.453125 -9.484375 L 8.453125 0 L 6.71875 0 L 2.515625 -7.921875 L 2.515625 0 L 1.28125 0 Z M 1.28125 -9.484375 "/>
</symbol>
</g>
</defs>
<g id="surface53801">
<rect x="0" y="0" width="300" height="300" style="fill:rgb(100%,100%,100%);fill-opacity:1;stroke:none;"/>
<path style="fill:none;stroke-width:1.2;stroke-linecap:butt;stroke-linejoin:miter;stroke:rgb(0%,0%,0%);stroke-opacity:1;stroke-miterlimit:10;" d="M 244.273438 179.875 L 264.75 206.671875 "/>
<path style="fill:none;stroke-width:1.2;stroke-linecap:butt;stroke-linejoin:miter;stroke:rgb(0%,0%,100%);stroke-opacity:1;stroke-miterlimit:10;" d="M 210.832031 184.207031 L 227.554688 182.039062 "/>
<path style="fill:none;stroke-width:1.2;stroke-linecap:butt;stroke-linejoin:miter;stroke:rgb(0%,0%,0%);stroke-opacity:1;stroke-miterlimit:10;" d="M 227.554688 182.039062 L 244.273438 179.875 "/>
<path style="fill:none;stroke-width:1.2;stroke-linecap:butt;stroke-linejoin:miter;stroke:rgb(0%,0%,0%);stroke-opacity:1;stroke-miterlimit:10;" d="M 264.75 206.671875 L 258.265625 222.234375 "/>
<path style="fill:none;stroke-width:1.2;stroke-linecap:butt;stroke-linejoin:miter;stroke:rgb(100%,0%,0%);stroke-opacity:1;stroke-miterlimit:10;" d="M 258.265625 222.234375 L 251.78125 237.800781 "/>
<path style="fill:none;stroke-width:1.2;stroke-linecap:butt;stroke-linejoin:miter;stroke:rgb(100%,0%,0%);stroke-opacity:1;stroke-miterlimit:10;" d="M 251.78125 237.800781 L 235.058594 239.96875 "/>
<path style="fill:none;stroke-width:1.2;stroke-linecap:butt;stroke-linejoin:miter;stroke:rgb(0%,0%,0%);stroke-opacity:1;stroke-miterlimit:10;" d="M 235.058594 239.96875 L 218.335938 242.132812 "/>
<path style=" stroke:none;fill-rule:nonzero;fill:rgb(100%,100%,100%);fill-opacity:1;" d="M 246.78125 229.800781 L 257.78125 229.800781 L 257.78125 245.800781 L 246.78125 245.800781 Z M 246.78125 229.800781 "/>
<g style="fill:rgb(100%,0%,0%);fill-opacity:1;">
  <use xlink:href="#glyph0-1" x="246.78125" y="242.176758"/>
</g>
<path style="fill:none;stroke-width:1.2;stroke-linecap:butt;stroke-linejoin:miter;stroke:rgb(0%,0%,0%);stroke-opacity:1;stroke-miterlimit:10;" d="M 218.335938 242.132812 L 197.863281 215.335938 "/>
<path style="fill:none;stroke-width:1.2;stroke-linecap:butt;stroke-linejoin:miter;stroke:rgb(0%,0%,0%);stroke-opacity:1;stroke-miterlimit:10;" d="M 197.863281 215.335938 L 204.347656 199.773438 "/>
<path style="fill:none;stroke-width:1.2;stroke-linecap:butt;stroke-linejoin:miter;stroke:rgb(0%,0%,100%);stroke-opacity:1;stroke-miterlimit:10;" d="M 204.347656 199.773438 L 210.832031 184.207031 "/>
<path style="fill:none;stroke-width:1;stroke-linecap:butt;stroke-linejoin:miter;stroke:rgb(0%,0%,0%);stroke-opacity:1;stroke-miterlimit:10;" d="M 190.355469 157.410156 L 190.355469 157.410156 M 191.734375 160.074219 L 192.566406 159.441406 M 193.117188 162.738281 L 194.773438 161.472656 M 194.496094 165.402344 L 196.980469 163.503906 M 195.875 168.066406 L 199.1875 165.535156 M 197.253906 170.730469 L 201.394531 167.566406 M 198.632812 173.394531 L 203.605469 169.597656 M 200.011719 176.058594 L 205.8125 171.625 M 201.390625 178.722656 L 208.019531 173.65625 M 202.769531 181.386719 L 210.226562 175.6875 M 204.152344 184.050781 L 212.4375 177.71875 M 205.53125 186.714844 L 214.644531 179.75 M 206.101562 187.820312 L 215.558594 180.59375 "/>
<path style=" stroke:none;fill-rule:nonzero;fill:rgb(100%,100%,100%);fill-opacity:1;" d="M 205.832031 176.207031 L 215.832031 176.207031 L 215.832031 192.207031 L 205.832031 192.207031 Z M 205.832031 176.207031 "/>
<g style="fill:rgb(0%,0%,100%);fill-opacity:1;">
  <use xlink:href="#glyph0-2" x="205.832031" y="188.583008"/>
</g>
<path style="fill:none;stroke-width:1.2;stroke-linecap:butt;stroke-linejoin:miter;stroke:rgb(0%,0%,0%);stroke-opacity:1;stroke-miterlimit:10;" d="M 190.355469 157.410156 L 200 125.09375 "/>
<path style="fill:none;stroke-width:1.2;stroke-linecap:butt;stroke-linejoin:miter;stroke:rgb(0%,0%,0%);stroke-opacity:1;stroke-miterlimit:10;" d="M 156.644531 158.222656 L 190.355469 157.410156 "/>
<path style="fill:none;stroke-width:1.2;stroke-linecap:butt;stroke-linejoin:miter;stroke:rgb(0%,0%,0%);stroke-opacity:1;stroke-miterlimit:10;" d="M 200 125.09375 L 230.46875 110.640625 "/>
<path style="fill:none;stroke-width:1.2;stroke-linecap:butt;stroke-linejoin:miter;stroke:rgb(0%,0%,0%);stroke-opacity:1;stroke-miterlimit:10;" d="M 199.644531 116.480469 L 224.019531 104.914062 "/>
<path style="fill:none;stroke-width:1.2;stroke-linecap:butt;stroke-linejoin:miter;stroke:rgb(0%,0%,0%);stroke-opacity:1;stroke-miterlimit:10;" d="M 172.246094 105.9375 L 200 125.09375 "/>
<path style="fill:none;stroke-width:1.2;stroke-linecap:butt;stroke-linejoin:miter;stroke:rgb(0%,0%,0%);stroke-opacity:1;stroke-miterlimit:10;" d="M 230.46875 110.640625 L 233.183594 77.023438 "/>
<path style="fill:none;stroke-width:1.2;stroke-linecap:butt;stroke-linejoin:miter;stroke:rgb(0%,0%,0%);stroke-opacity:1;stroke-miterlimit:10;" d="M 233.183594 77.023438 L 205.429688 57.867188 "/>
<path style="fill:none;stroke-width:1.2;stroke-linecap:butt;stroke-linejoin:miter;stroke:rgb(0%,0%,0%);stroke-opacity:1;stroke-miterlimit:10;" d="M 225.902344 81.640625 L 203.699219 66.3125 "/>
<path style="fill:none;stroke-width:1.2;stroke-linecap:butt;stroke-linejoin:miter;stroke:rgb(0%,0%,0%);stroke-opacity:1;stroke-miterlimit:10;" d="M 205.429688 57.867188 L 174.960938 72.324219 "/>
<path style="fill:none;stroke-width:1.2;stroke-linecap:butt;stroke-linejoin:miter;stroke:rgb(0%,0%,0%);stroke-opacity:1;stroke-miterlimit:10;" d="M 174.960938 72.324219 L 172.246094 105.9375 "/>
<path style="fill:none;stroke-width:1.2;stroke-linecap:butt;stroke-linejoin:miter;stroke:rgb(0%,0%,0%);stroke-opacity:1;stroke-miterlimit:10;" d="M 182.601562 76.324219 L 180.429688 103.214844 "/>
<path style="fill:none;stroke-width:1.2;stroke-linecap:butt;stroke-linejoin:miter;stroke:rgb(0%,0%,0%);stroke-opacity:1;stroke-miterlimit:10;" d="M 172.246094 105.9375 L 145.449219 126.410156 "/>
<path style="fill:none;stroke-width:1.2;stroke-linecap:butt;stroke-linejoin:miter;stroke:rgb(0%,0%,0%);stroke-opacity:1;stroke-miterlimit:10;" d="M 145.449219 126.410156 L 128.878906 123.304688 "/>
<path style="fill:none;stroke-width:1.2;stroke-linecap:butt;stroke-linejoin:miter;stroke:rgb(0%,0%,100%);stroke-opacity:1;stroke-miterlimit:10;" d="M 128.878906 123.304688 L 112.304688 120.199219 "/>
<path style="fill:none;stroke-width:1.2;stroke-linecap:butt;stroke-linejoin:miter;stroke:rgb(0%,0%,0%);stroke-opacity:1;stroke-miterlimit:10;" d="M 140.675781 133.589844 L 127.414062 131.105469 "/>
<path style="fill:none;stroke-width:1.2;stroke-linecap:butt;stroke-linejoin:miter;stroke:rgb(0%,0%,100%);stroke-opacity:1;stroke-miterlimit:10;" d="M 127.414062 131.105469 L 114.15625 128.617188 "/>
<path style="fill:none;stroke-width:1.2;stroke-linecap:butt;stroke-linejoin:miter;stroke:rgb(0%,0%,0%);stroke-opacity:1;stroke-miterlimit:10;" d="M 156.644531 158.222656 L 145.449219 126.410156 "/>
<path style="fill:none;stroke-width:1.2;stroke-linecap:butt;stroke-linejoin:miter;stroke:rgb(0%,0%,100%);stroke-opacity:1;stroke-miterlimit:10;" d="M 112.304688 120.199219 L 101.328125 132.996094 "/>
<path style="fill:none;stroke-width:1.2;stroke-linecap:butt;stroke-linejoin:miter;stroke:rgb(0%,0%,0%);stroke-opacity:1;stroke-miterlimit:10;" d="M 101.328125 132.996094 L 90.351562 145.796875 "/>
<path style=" stroke:none;fill-rule:nonzero;fill:rgb(100%,100%,100%);fill-opacity:1;" d="M 107.304688 112.199219 L 117.304688 112.199219 L 117.304688 128.199219 L 107.304688 128.199219 Z M 107.304688 112.199219 "/>
<g style="fill:rgb(0%,0%,100%);fill-opacity:1;">
  <use xlink:href="#glyph0-2" x="107.304688" y="124.575195"/>
</g>
<path style="fill:none;stroke-width:1.2;stroke-linecap:butt;stroke-linejoin:miter;stroke:rgb(0%,0%,0%);stroke-opacity:1;stroke-miterlimit:10;" d="M 90.351562 145.796875 L 57.203125 139.582031 "/>
<path style="fill:none;stroke-width:1.2;stroke-linecap:butt;stroke-linejoin:miter;stroke:rgb(0%,0%,0%);stroke-opacity:1;stroke-miterlimit:10;" d="M 85.574219 152.972656 L 59.058594 148.003906 "/>
<path style="fill:none;stroke-width:1.2;stroke-linecap:butt;stroke-linejoin:miter;stroke:rgb(0%,0%,0%);stroke-opacity:1;stroke-miterlimit:10;" d="M 101.542969 177.609375 L 90.351562 145.796875 "/>
<path style="fill:none;stroke-width:1.2;stroke-linecap:butt;stroke-linejoin:miter;stroke:rgb(0%,0%,0%);stroke-opacity:1;stroke-miterlimit:10;" d="M 57.203125 139.582031 L 35.25 165.179688 "/>
<path style="fill:none;stroke-width:1.2;stroke-linecap:butt;stroke-linejoin:miter;stroke:rgb(0%,0%,0%);stroke-opacity:1;stroke-miterlimit:10;" d="M 35.25 165.179688 L 46.441406 196.992188 "/>
<path style="fill:none;stroke-width:1.2;stroke-linecap:butt;stroke-linejoin:miter;stroke:rgb(0%,0%,0%);stroke-opacity:1;stroke-miterlimit:10;" d="M 43.855469 165.730469 L 52.808594 191.179688 "/>
<path style="fill:none;stroke-width:1.2;stroke-linecap:butt;stroke-linejoin:miter;stroke:rgb(0%,0%,0%);stroke-opacity:1;stroke-miterlimit:10;" d="M 46.441406 196.992188 L 79.589844 203.207031 "/>
<path style="fill:none;stroke-width:1.2;stroke-linecap:butt;stroke-linejoin:miter;stroke:rgb(0%,0%,0%);stroke-opacity:1;stroke-miterlimit:10;" d="M 79.589844 203.207031 L 101.542969 177.609375 "/>
<path style="fill:none;stroke-width:1.2;stroke-linecap:butt;stroke-linejoin:miter;stroke:rgb(0%,0%,0%);stroke-opacity:1;stroke-miterlimit:10;" d="M 75.761719 195.480469 L 93.324219 175.003906 "/>
<path style="fill:none;stroke-width:1.2;stroke-linecap:butt;stroke-linejoin:miter;stroke:rgb(0%,0%,0%);stroke-opacity:1;stroke-miterlimit:10;" d="M 101.542969 177.609375 L 134.6875 183.820312 "/>
<path style="fill:none;stroke-width:1.2;stroke-linecap:butt;stroke-linejoin:miter;stroke:rgb(0%,0%,0%);stroke-opacity:1;stroke-miterlimit:10;" d="M 134.6875 183.820312 L 156.644531 158.222656 "/>
<path style="fill:none;stroke-width:1.2;stroke-linecap:butt;stroke-linejoin:miter;stroke:rgb(0%,0%,0%);stroke-opacity:1;stroke-miterlimit:10;" d="M 130.859375 176.097656 L 148.425781 155.617188 "/>
</g>
</svg>

<svg xmlns="http://www.w3.org/2000/svg" xmlns:xlink="http://www.w3.org/1999/xlink" width="300pt" height="300pt" viewBox="0 0 300 300"><defs><symbol overflow="visible"><path d="M.64 2.297v-11.47h6.5v11.47zm.735-.72h5.047V-8.436H1.375zm0 0"/></symbol><symbol overflow="visible" id="a"><path d="M5.125-8.61c-.938 0-1.684.352-2.234 1.047-.542.688-.812 1.633-.812 2.83 0 1.198.27 2.147.813 2.842.55.687 1.297 1.03 2.235 1.03.926 0 1.66-.343 2.203-1.03.55-.696.828-1.645.828-2.844 0-1.196-.277-2.14-.828-2.829-.543-.695-1.277-1.046-2.203-1.046zm0-1.046c1.32 0 2.38.45 3.172 1.344.8.898 1.203 2.09 1.203 3.578 0 1.5-.402 2.7-1.203 3.593C7.504-.255 6.445.186 5.125.186c-1.336 0-2.402-.44-3.203-1.328C1.13-2.036.734-3.235.734-4.735c0-1.49.395-2.68 1.188-3.579.8-.894 1.867-1.343 3.203-1.343zm0 0"/></symbol><symbol overflow="visible" id="b"><path d="M1.28-9.484H3l4.203 7.937v-7.937h1.25V0H6.72L2.515-7.922V0H1.28zm0 0"/></symbol></defs><g><path fill="#fff" d="M0 0h300v300H0z"/><path d="M244.273 179.875l20.477 26.797" stroke-width="1.2" stroke="#000" stroke-miterlimit="10" fill="none"/><path d="M210.832 184.207l16.723-2.168" stroke-width="1.2" stroke="#00f" stroke-miterlimit="10" fill="none"/><path d="M227.555 182.04l16.718-2.165M264.75 206.672l-6.484 15.562" stroke-width="1.2" stroke="#000" stroke-miterlimit="10" fill="none"/><path d="M258.266 222.234L251.78 237.8M251.78 237.8l-16.72 2.17" stroke-width="1.2" stroke="#f00" stroke-miterlimit="10" fill="none"/><path d="M235.06 239.97l-16.724 2.163" stroke-width="1.2" stroke="#000" stroke-miterlimit="10" fill="none"/><path d="M246.78 229.8h11v16h-11zm0 0" fill="#fff"/><use xlink:href="#a" x="246.781" y="242.177" fill="#f00"/><path d="M218.336 242.133l-20.473-26.797M197.863 215.336l6.485-15.563" stroke-width="1.2" stroke="#000" stroke-miterlimit="10" fill="none"/><path d="M204.348 199.773l6.484-15.566" stroke-width="1.2" stroke="#00f" stroke-miterlimit="10" fill="none"/><path d="M190.355 157.41m1.38 2.664l.83-.633m.552 3.298l1.656-1.265m-.277 3.93l2.484-1.9m-1.105 4.563l3.313-2.53m-1.934 5.194l4.14-3.164m-2.76 5.83l4.97-3.798m-3.592 6.46l5.8-4.433m-4.42 7.098l6.628-5.067m-5.25 7.73l7.457-5.698m-6.075 8.363l8.286-6.33m-6.907 8.995l9.115-6.965m-8.543 8.07l9.457-7.226" stroke="#000" stroke-miterlimit="10" fill="none"/><path d="M205.832 176.207h10v16h-10zm0 0" fill="#fff"/><use xlink:href="#b" x="205.832" y="188.583" fill="#00f"/><path d="M190.355 157.41L200 125.094M156.645 158.223l33.71-.813M200 125.094l30.47-14.453M199.645 116.48l24.375-11.566M172.246 105.938L200 125.094M230.47 110.64l2.714-33.617M233.184 77.023L205.43 57.867M225.902 81.64L203.7 66.313M205.43 57.867l-30.47 14.457M174.96 72.324l-2.714 33.614M182.602 76.324l-2.172 26.89M172.246 105.938L145.45 126.41M145.45 126.41l-16.57-3.105" stroke-width="1.2" stroke="#000" stroke-miterlimit="10" fill="none"/><path d="M128.88 123.305l-16.575-3.106" stroke-width="1.2" stroke="#00f" stroke-miterlimit="10" fill="none"/><path d="M140.676 133.59l-13.262-2.485" stroke-width="1.2" stroke="#000" stroke-miterlimit="10" fill="none"/><path d="M127.414 131.105l-13.258-2.488" stroke-width="1.2" stroke="#00f" stroke-miterlimit="10" fill="none"/><path d="M156.645 158.223L145.45 126.41" stroke-width="1.2" stroke="#000" stroke-miterlimit="10" fill="none"/><path d="M112.305 120.2l-10.977 12.796" stroke-width="1.2" stroke="#00f" stroke-miterlimit="10" fill="none"/><path d="M101.328 132.996l-10.976 12.8" stroke-width="1.2" stroke="#000" stroke-miterlimit="10" fill="none"/><path d="M107.305 112.2h10v16h-10zm0 0" fill="#fff"/><use xlink:href="#b" x="107.305" y="124.575" fill="#00f"/><path d="M90.352 145.797l-33.15-6.215M85.574 152.973l-26.515-4.97M101.543 177.61l-11.19-31.813M57.203 139.582L35.25 165.18M35.25 165.18l11.19 31.812M43.855 165.73l8.954 25.45M46.44 196.992l33.15 6.215M79.59 203.207l21.953-25.598M75.762 195.48l17.562-20.476M101.543 177.61l33.144 6.21M134.688 183.82l21.957-25.597M130.86 176.098l17.566-20.48" stroke-width="1.2" stroke="#000" stroke-miterlimit="10" fill="none"/></g></svg>
